X: 422
T:The Wedding Reel
M:C
L:1/8
S:as played by Lunasa
Z:David Migoya
K:D
DDE| F2BF AFEF| D2DE FABd| e2fd efed| B2de dBAG| F2BF AFEF| D2DE FABd| e2fd
efdB| ABde d:|
ABd| A3f edfd| A3f edfd| ABdA BdAB| dBAF EFDE| F2BF AFEF| D2DE FABd| e2fd
efdB| ABde d:|

